!!!!SEGMENT: pl-kk--kk-i-8--011_anonim--o-sol-salutis-intimis-jesu.krn
!!!cenid: 16xx:1152
!!!COM: Anonim
!!!COM-rismID: pe30004985
!!!CDT:
!!!CNT:
!!!OTL: O sol salutis intimis Jesu
!!!PDT:
!!!AGN: Sacred
!!!SMS-siglum: PL-Kk
!!!SMS-shelfmark: Kk.I.8
!!!SMS-shelfwork: 011 W
!!!SMS-variant:
!!!SMS-altvar:
!!!NIFC-rismSourceID: 1001148516
!!!NIFC-islandoraID: pl-kk:2296
!!!URL-pdf-islandora: https://repozytorium.nifc.pl/islandora/object/pl-kk%3A2296/datastream/PDF/view
!!!URL-scan: https://polish.musicsources.pl/pl/lokalizacje/galeria/rekopisy/6141 @EN{Scan on Polish Music Sources Website} @PL{Skany w portalu Dziedzictwo Muzyki Polskiej w otwartym dostępie}
!!!ONB-nifc: UWAGA: A (skan 0007), T1 (0030), T2 (0054), B (0077). Następny utwór: Dulcis mater
!!!AIN: 1 alto 1 bass 2 tenor
!!!key:
**kern	**text	**text	**kern	**text	**text	**kern	**text	**text	**kern	**text	**text
*part4	*part4	*part4	*part3	*part3	*part3	*part2	*part2	*part2	*part1	*part1	*part1
*staff4	*staff4	*staff4	*staff3	*staff3	*staff3	*staff2	*staff2	*staff2	*staff1	*staff1	*staff1
*group1	*	*	*group1	*	*	*group1	*	*	*group1	*	*
*	*verse1	*verse2	*	*verse1	*verse2	*	*verse1	*verse2	*	*verse1	*verse2
*Ibass	*	*	*Itenor	*	*	*Itenor	*	*	*Ialto	*	*
*I"BASSVS.	*	*	*I"TENOR 2dus.	*	*	*I"Tenore 1mo	*	*	*I"alto.	*	*
*I'B	*	*	*I'T 2	*	*	*I'T 1	*	*	*I'A	*	*
*clefF4	*	*	*clefC4	*	*	*clefC1	*	*	*clefC3	*	*
*k[b-e-]	*	*	*k[b-e-]	*	*	*k[b-e-]	*	*	*k[b-e-]	*	*
*c:	*	*	*c:	*	*	*c:	*	*	*c:	*	*
*M3/1	*	*	*M3/1	*	*	*M3/1	*	*	*M3/1	*	*
=1	=1	=1	=1	=1	=1	=1	=1	=1	=1	=1	=1
!LO:TX:t=P:problem=przy kluczu BB- E- B-	!	!	!LO:TX:t=P:problem=przy kluczu E- B- e-	!	!	!LO:TX:t=P:problem=przy kluczu b- e- B-	!	!	!	!	!
0.C	1_O	2._Dans	1re	.	.	1r	.	.	1rg	.	.
.	.	.	2e-\	1_O	2_Dans	2c/	1._O	2_Dans	2g\	1_O	2_Dans
.	.	.	2d\	.	.	2d/	.	.	2f\	.	.
.	.	.	1c	.	.	2e-/	.	.	1e-	.	.
.	.	.	.	.	.	2f/	.	.	.	.	.
=2	=2	=2	=2	=2	=2	=2	=2	=2	=2	=2	=2
!LO:N:acc=#	!	!	!	!	!	!	!	!	!	!	!
(>1BBn	Sol	tem-	1d	Sol	tem-	1g	Sol	tem-	1d	Sol	tem-
1C)	.	.	1c	.	.	1c	.	.	0e-	Sa-	-p(us)
1AA-X	Sa-	-p(us)	1c	Sa-	-p(us)	1cc	Sa-	-p(us)	.	.	.
=3	=3	=3	=3	=3	=3	=3	=3	=3	=3	=3	=3
0GG	-lu-	ac-	0e-	-lu-	ac-	0b-	-lu-	ac-	0e-	-lu-	ac-
1G	-tis	-cep-	1B-	-tis	-cep-	2b-\	-tis	-cep-	1e-	-tis	-cep-
.	.	.	.	.	.	2cc\	.	.	.	.	.
=4	=4	=4	=4	=4	=4	=4	=4	=4	=4	=4	=4
0F	in-	-ta-	0c	in-	-ta-	0a-X	in-	-ta-	0e-	in-	-ta-
1F	-ti-	-bi-	2B-\	-ti-	-bi-	1a-	-ti-	-bi-	2.d\	-ti-	-bi-
.	.	.	2A-X/	.	.	.	.	.	.	.	.
.	.	.	.	.	.	.	.	.	4e-\	.	.
=5	=5	=5	=5	=5	=5	=5	=5	=5	=5	=5	=5
0.E-	-mis	-le	0.B-	-mis	-le	0.g	-mis	-le	0.e-	-mis	-le
=6	=6	=6	=6	=6	=6	=6	=6	=6	=6	=6	=6
1D	Je-	da	1d	Je-	da	1b-	Je-	da	1f	Je-	.
1.D	-su	la-	1.d	ſu	la-	1.b-	ſu	la-	1.f	-ſu	.
!	!	!	!	!	!	!LO:TX:a:t=P:problem=♭ above	!	!	!	!	!
2D/	Je-	-cry-	2d\	Je-	-cry-	2a-X\	Je-	-cry-	2f\	re-	.
=7	=7	=7	=7	=7	=7	=7	=7	=7	=7	=7	=7
1.E-	-ſu	-ma-	1.c	-ſu	-ma-	1.g	-ſu	-ma-	1.g	-ful-	.
4F\	re-	.	2c\	re-	.	4a\	re-	.	2f\	.	.
4G\	.	.	.	.	.	4b-\	.	.	.	.	.
1A-X	-ful-	-ru(m)	1c	-ful-	-ru(m)	1cc	-ful-	-ru(m)	1e-	.	.
=8	=8	=8	=8	=8	=8	=8	=8	=8	=8	=8	=8
!LO:SIC:v:s=1AA-	!	!	!	!	!	!	!	!	!	!	!
1AA	-ge	da	1c	-ge	da	1f	-ge	da	1a-X	-ge	.
1.BB-	men-	ri-	1.B-	men-	ri-	1.f	men-	ri-	1.f	men-	.
2BB-/	-ti-	-vu-	2B-\	-ti-	-vu-	2e-/	-ti-	-vu-	2f\	-ti-	.
=9	=9	=9	=9	=9	=9	=9-	=9	=9	=9	=9	=9
*	*	*	*	*	*	*custos:ee	*	*	*	*	*
0.E-	-b(us)	-lis	0.B-	-b(us)	-lis	0.e-	-b(us)	-lis	0.g	-b(us)	.
!	!	!	!	!	!	!LO:LB:g=original	!	!	!	!	!
=10	=10	=10	=10	=10	=10	=10	=10	=10	=10	=10	=10
1C	du(m)	la-	1c	d(um)	la-	1ee-	du(m)	la-	1g	du(m)	la-
1BB-	no-	-va-	1d	no-	-va-	1dd	no-	-va-	1g	no-	-va-
!	!	!	!	!	!	!	!	!	!LO:TX:a:t=P:problem=# above	!	!
1AA	-cte	-re	1A	-cte	-re	1cc	-cte	-re	1f#X	-cte	-re
!LO:LB:g=original	!	!	!LO:LB:g=original	!	!	!	!	!	!	!	!
=11	=11	=11	=11	=11	=11	=11	=11	=11	=11	=11	=11
1.GG	no-	cor-	1.B-	no-	cor-	1.dd	no-	cor-	1.g	pul-	cor-
!	!	!	!	!	!	!	!	!	!LO:N:acc=-	!	!
!	!	!	!	!	!	!	!	!	!LO:TX:a:t=P:problem=♭ above	!	!
2AA/	-cte	-dis	2c\	-cte	-dis	2f#X/	-cte	-dis	4fn\	.	.
.	.	.	.	.	.	.	.	.	4e-\	.	.
1BB-	pul-	cor-	1d	pul-	cor-	(<2g/	pul-	cor-	1d	.	.
.	.	.	.	.	.	2a\)	.	.	.	.	.
=12	=12	=12	=12	=12	=12	=12	=12	=12	=12	=12	=12
1GG	-sa	-dis	1d	-ſa	-dis	1b-	-ſa	-dis	1g	-ſa	-diſ
1.D	gra-	Vic-	1.d	gra-	Vic-	1.a	gra-	Vic-	1.g	gra-	Vic-
!	!	!	!	!	!	!LO:SIC:v:s=2a	!	!	!	!	!
2D/	-ti-	-ti-	2c\	-ti-	-ti-	2g/	-ti-	-ti-	2f#X\	-ti-	-ti-
=13	=13	=13	=13	=13	=13	=13	=13	=13	=13	=13	=13
0.GG	-or,	-ma(m)	0.d	-or.	-ma(m)	0.g	-or.	-ma(m)	0.g	-or	-ma(m)
=14	=14	=14	=14	=14	=14	=14	=14	=14	=14	=14	=14
(1G	or-	qua(m)	1B-	or-	qua(m)	1dd	or-	qua(m)	[1g	or-	qua(m)
1E-X)	.	.	1c	.	lae-	(1ee-	-bi	lae-	1g]	.	lae-
1F	-bi	lae-	1A	-bi	-ta	1cc)	.	-ta	1f	-bi	-ta
=15-	=15	=15	=15	=15	=15	=15	=15	=15	=15	=15	=15
0BB-	di-	-ta	0B-	di-	a-	0dd	di-	a-	0f	di-	a-
1BB-	-es	a-	1B-	-es	-do-	1dd	-es	-du-	1f	-es	-du-
=16	=16	=16	=16	=16	=16	=16	=16	=16	=16	=16	=16
*	*	*	*	*	*	*	*	*	*	*ij	*
!LO:TX:a:t=P:problem=♭ above	!	!	!	!	!	!	!	!	!	!	!
1E-X	or-	-du-	1G	or-	-rat	1b-	or-	-rat	1g	or-	-rat
*	*	*	*	*	*ij	*	*	*ij	*	*	*ij
1E-	-bi	-rat	(1A	-bi	lae-	1cc	-bi	lae-	(1g	-bi	lae-
1D	di-	/lae-	1B-)	di-	.	1dd	di-	-ta	1f)	.	.
=17	=17	=17	=17	=17	=17	=17	=17	=17	=17	=17	=17
1.C	-es	-ta	1.c	-es	-ta	1.ee-	-eſ	a-	1.e-X	di-	-ta
2BB-/	di-	a-	2d\	di-	a-	4dd\	di-	.	4f\	.	a-
.	.	.	.	.	.	4ee-\	.	.	4g\	.	.
1AA-X	-es	-du-	1c	-es	-do-	1ff	-es	-du-	1a-X	-es/	-du-
*	*	*	*	*	*	*	*	*	*	*Xij	*
=18	=18	=18	=18	=18	=18	=18	=18	=18	=18	=18	=18
1E-X	re-	-rat/	1c	re-	-rat	1ee-	re-	-rat	1g	re-	-rat
*	*	*	*	*	*Xij	*	*	*Xij	*	*	*Xij
1.G	-naſ-	chà-	1.c	-naſ-	cha-	1.dd	-naſ-	cha-	1.g	-naſ-	chà-
!	!	!	!LO:N:acc=#	!	!	!	!	!	!	!	!
2G\	-ci-	-ri-	2Bn\	-ci-	-ri-	2cc\	-ci-	-ri-	2f\	-ci-	-ri-
=19	=19	=19	=19	=19	=19	=19	=19	=19	=19	=19	=19
0.Cl;<	-tur	-tas	0.cl;<	-tur	-tas.	0.ccl;;	-tur.	-tas	0.gl	-t(ur)	-tas
!	!	!	!	!	!	!LO:LB:g=original	!	!	!LO:LB:g=original	!	!
=20||	=20||	=20||	=20||	=20||	=20||	=20||	=20||	=20||	=20||	=20||	=20||
*M3/1	*	*	*M3/1	*	*	*M3/1	*	*	*M3/1	*	*
*	*verse3	*verse4	*	*verse3	*verse4	*	*verse3	*verse4	*	*verse3	*verse4
!LO:TX:t=P:problem=kreska taktowa początek repetycji	!	!	!	!	!	!	!	!	!	!	!
0C	3_Quo	4_Di-	0e-	3_Quo	4_Di-	0cc	3_Quo	4_Di-	0g	3_Quo	4_Di-
*custos:F	*	*	*	*	*	*	*	*	*	*	*
1C	fon-	-es	1e-	fon-	-es	1cc	fon-	-es	1g	fon-	-es
!LO:LB:g=original	!	!	!	!	!	!	!	!	!	!	!
=21	=21	=21	=21	=21	=21	=21	=21	=21	=21	=21	=21
!	!	!	!	!	!	!LO:N:acc=#	!	!	!	!	!
1.F	-te	ve-	1.c	-te	Ve-	1.an	-te	Ve-	1.f	-te	ve-
!	!	!	!LO:LB:g=original	!	!	!	!	!	!	!	!
2E-\	ma-	-nit	2c\	ma-	-nit	2a\	ma-	-nit	2g\	ma-	-nit
!	!	!	!	!	!	!LO:N:acc=#	!	!	!	!	!
1D	-na-	di-	1d	-na-	di-	1bn	-na-	di-	1f	-na-	di-
=22	=22	=22	=22	=22	=22	=22	=22	=22	=22	=22	=22
1C	-vit	-eſ	1e-	-vit	-es	1cc	-vit	-eſ	1e-	-vit	-eſ
!	!	!	!	!	!	!LO:N:acc=#	!	!	!	!	!
[<1G	ne-	tu-	1d	ne-	tu-	1bn	ne-	tu-	1g	ne-	.
1G,<]	-fas	-a	1d	-fas	-a	1b	-fas	-a	1g	-fas	tu-
=23	=23	=23	=23	=23	=23	=23	=23	=23	=23	=23	=23
!	!	!	!	!	!	!	!	!	!LO:TX:a:t=P:problem=♭ above	!	!
!	!	!	!	!	!	!	!	!	!LO:SIC:v:s=1gn	!	!
1E-	flu-	in	1e-	flu-	in	1b-X	flu-	in	1g-X	flu-	-a
!	!	!	!	!	!	!	!	!	!LO:TX:a:t=P:problem=♭ above	!	!
1A-X	-ent	qua	1e-	-ent	qua	1cc	-ent	qua	1a-X	-ent	in
1F	flu-	in	1f	.	in	1dd	flu-	in	1a-	.	qua
=24	=24	=24	=24	=24	=24	=24	=24	=24	=24	=24	=24
1.E-	-ent	qua	1B-	pe-	re-	1.ee-X	-ent	qua	1.g	.	re-
.	.	.	2c\	-ren-	-flo-	.	.	.	.	.	.
2F\	pe-	re-	2d\	.	.	4dd\	pe-	re-	2f\	pe-	-flo-
.	.	.	.	.	.	4cc\	.	.	.	.	.
!	!	!	!	!	!	!	!	!	!LO:TX:t=P:problem=kreska taktowa między nutą a kropką	!	!
1G	-ren-	-flo-	1e-	.	.	1b-	-ren-	-flo-	1.e-	-ren-	.
=25	=25	=25	=25	=25	=25	=25	=25	=25	=25	=25	=25
1A-X	-nes	-rent	1e-	-nes	rent	1cc	-nes	-rent	.	.	.
.	.	.	.	.	.	.	.	.	2f\	-nes	-rent
*lig	*	*	*	*	*	*	*	*	*	*	*
1B-	la-	om-	1.e-	la-	om-	1.b-	la-	om-	1.f	la-	om-
1BB-	.	-ni-	.	.	.	.	.	.	.	.	.
.	.	.	2d\	-cry-	-ni-	2b-\	-cry-	-ni-	2e-\	-cri-	-ni-
*Xlig	*	*	*	*	*	*	*	*	*	*	*
=26-	=26	=26	=26	=26	=26	=26-	=26	=26	=26	=26	=26
0.E-	-cri-	-a	0.e-	-mae	-a	0.b-	-mae	-a	0.e-	-(mae):	-a
=27	=27	=27	=27	=27	=27	=27	=27	=27	=27	=27	=27
1E-	-mae	lae-	1e-	Si	lae-	1b-	Si	lae-	1g	Si	lae-
1B-	Si	-te-	1d	Vir-	-te-	1b-	Vir-	-te-	1f	Vir-	-te-
1G	Vir-	-mu(r)	1e-	-ga	-m(ur)	1b-	-ga	-m(ur)	1g	-ga	-m(ur)
=28	=28	=28	=28	=28	=28	=28	=28	=28	=28	=28	=28
1.A-X	-ga	et	0c	poe-	et	1.cc	Vir-	et	0e-	poe-	et
2G\	Vir-	nos	.	.	.	2b-\	-ga	nos	.	.	.
!	!	!	!	!	!	!LO:TX:a:t=P:problem=♭ above	!	!	!	!	!
1F	-ga	et	1c	-ni-	nos	1a-X	poe-	et	1f	-ni-	(nos)
!	!	!	!	!	!	!LO:PB:g=original	!	!	!	!	!
=29	=29	=29	=29	=29	=29	=29	=29	=29	=29	=29	=29
1F	poe-	nos	1.c	-ten-	et	1a-X	-ni-	nos	0f	-ten-	in-
1.C	-ni-	in	.	.	.	1.g	-ten-	in	.	.	.
.	.	.	2c\	-ti-	nos	.	.	.	.	.	.
!	!	!	!	!	!	!	!	!	!LO:TX:a:t=P:problem=# above	!	!
!	!	!	!	!	!	!	!	!	!LO:N:acc=#	!	!
.	.	.	1c	-ae	in	.	.	.	1en	-ti-	-vi-
2C/	-ten-	vi-	.	.	.	2g/	-ti-	vi-	.	.	.
=30	=30	=30	=30	=30	=30	=30	=30	=30	=30	=30	=30
!	!	!	!	!	!	!	!	!	!LO:SIC:v:s=0fn	!	!
!	!	!	!	!	!	!	!	!	!LO:TX:a:t=P:problem=# above	!	!
0F	-tiae	-a(m)	0c	Cor-	Vi-	0a	-ae	-a(m)	0f#X	-ae	-a(m)
1E-	Cor-	tu-	1c	-diſ	-am	1g	Cor-	tu-	1g	Cor-	tu-
!LO:PB:g=original	!	!	!LO:PB:g=original	!	!	!	!	!	!	!	!
=31	=31	=31	=31	=31	=31	=31	=31	=31	=31	=31	=31
!LO:TX:t=P:problem=tekst zamieniony miejscami [zapisano poprawnie]	!	!	!	!	!	!	!	!	!LO:SIC:v:s=1.a-	!	!
1.F	-1_dis	-2_a	1.A-X	Cor-	tu-	1.cc	-dis	-a	1.a	-diſ	-a
2E-X\	ri-	.	2A-\	-dis	-a	2cc\	ri-	re-	2g\	ri-	re-
1D	-go-	re-	1B-	ri-	re-	1dd	-go-	-duc-	1f	-go-	-duc-
=32	=32	=32	=32	=32	=32	=32	=32	=32	=32	=32	=32
1.E-X	-re(m)	-duc-	1G	-go-	-du-	1.b-	-re(m)	-ti	1.g	-re(m)	-ti
.	.	.	2G/	-re(m)	-cti	.	.	.	.	.	.
2D/	ri-	.	2G/	ri-	re-	2b-\	ri-	re-	2f\	ri-	re-
1C	-go-	-ti	(2c\	-go-	-du-	1cc	-go-	-duc-	1e-	-go-	-duc-
.	.	.	2d\)	.	.	.	.	.	.	.	.
=33	=33	=33	=33	=33	=33	=33	=33	=33	=33	=33	=33
1C	-re(m)	dex-	1e-	-re(m)	-cti	1b-	-re(m)	-ti	1g	-re(m)	-ti
1.D	con-	-te-	1.d	con-	dex-	1.a	con-	dex-	1.g	Con-	dex-
2D/	-te-	.	2d\	-te-	-te-	2a\	-te-	-te-	2f#X\	-te-	-te-
=34	=34	=34	=34	=34	=34	=34	=34	=34	=34	=34	=34
!	!	!	!	!	!	!LO:TX:a:t=P:problem=# above	!	!	!	!	!
!	!	!	!	!	!	!LO:N:acc=#	!	!	!	!	!
0GG	-rat	-ra	0d	-rat	-ra	0bn	-rat	-ra	0g	-rat	-ra
!LO:N:acc=#	!	!	!	!	!	!	!	!	!	!	!
1En	cor-	tu-	1c	Cor-	tu-	1cc	Cor-	tu-	1g	Cor-	Tu-
=35	=35	=35	=35	=35	=35	=35	=35	=35	=35	=35	=35
1.F	-dis	-a	1.A	-diſ	-a	1.cc	-dis	-a	0f	-diſ	-a
2G\	ri-	re-	2B-\	ri-	re-	2b-\	ri-	re-	.	.	.
1A-X	-go-	-duc-	1c	-go-	-duc-	1a-X	-go-	-duc-	2e-\	ri-	re-
.	.	.	.	.	.	.	.	.	2f\	.	.
=36	=36	=36	=36	=36	=36	=36	=36	=36	=36	=36	=36
1G	-re(m)	-ti	1B-	-re(m)	-ti	1.b-	-re(m)	-ti	0g	-go-	-duc-
2G\	ri-	re-	2B-\	ri-	re-	.	.	.	.	.	.
!	!	!	!LO:SIC:v:s=2A-	!	!	!	!	!	!	!	!
2F\	.	.	2A/	.	.	2b-\	ri-	re-	.	.	.
1E-	-go-	-duc-	1G	-go-	-duc-	1cc	-go-	-duc-	1g	-re(m)	-ti
=37	=37	=37	=37	=37	=37	=37	=37	=37	=37	=37	=37
!	!	!	!	!	!	!	!	!	!LO:TX:t=P:problem=fragment błędnie rytmicznie [zapisano zgodnie z pozostałymi głosami]	!	!
!	!	!	!	!	!	!	!	!	!LO:N:vis=0.	!	!
1C	-re(m)	-ti	1e-X	-re(m)	-ti	1cc	-re(m)	-ti	0g	Con-	dex-
1.G	Con-	dex-	1.d	con-	dex-	1.cc	con-	dex-	.	.	.
.	.	.	.	.	.	.	.	.	2ryy	.	.
!	!	!	!	!	!	!LO:N:acc=#	!	!	!	!	!
!	!	!	!	!	!	!LO:TX:a:t=P:problem=# above	!	!	!	!	!
2GG/	-te-	-te-	2d\	-te-	-te-	2bn\	-te-	-te-	2g\	-te-	-te-
=38-	=38	=38	=38	=38	=38	=38-	=38	=38	=38-	=38	=38
!	!	!	!	!	!	!	!	!	!LO:TX:a:t=P:problem=# above	!	!
!	!	!	!LO:TX:t=P:problem=kreska taktowa koniec / początek repetycji	!	!	!	!	!	!LO:N:acc=#	!	!
0.Cl;;	-rat	-ra	0.cl;;	-rat	-ra	0.ccl;;	-rat	-ra	0.enl;;	-rat	-ra
=39||	=39||	=39||	=39||	=39||	=39||	=39||	=39||	=39||	=39||	=39||	=39||
*M3/1	*	*	*M3/1	*	*	*M3/1	*	*	*M3/1	*	*
*	*verse5	*	*	*verse5	*	*	*verse5	*	*	*verse5	*
0C	Te	.	0c	5_Te	6.	0g	5_Te	.	0e-	5_Te	.
*	*	*	*	*	*	*	*	*	*custos:f	*	*
1C	pro-	.	1c	pro-	.	1g	pro-	.	1e-	pro-	.
!LO:LB:g=original	!	!	!LO:LB:g=original	!	!	!	!	!	!LO:LB:g=original	!	!
=40	=40	=40	=40	=40	=40	=40	=40	=40	=40	=40	=40
1F	-na	.	1c	-na	.	1a-X	-na	.	1f	-na	.
!	!	!	!LO:N:acc=#	!	!	!	!	!	!	!	!
1Dn	mun-	.	1Bn	mun-	.	1f	Mun-	.	1f	Mun-	.
1C	-di	.	1c	-di	.	1e-	-di	.	1g	-di	.
=41	=41	=41	=41	=41	=41	=41	=41	=41	=41	=41	=41
1.GG	ma-	.	1.B-	Ma-	.	1.d	Ma-	.	1.g	Ma-	.
2GG/	-chi-	.	2B-\	-chi-	.	2d/	-chi-	.	2g\	-chi-	.
1GG	-na	.	1B-	-na	.	1d	-na	.	1g	-na	.
=42	=42	=42	=42	=42	=42	=42	=42	=42	=42	=42	=42
*	*ij	*	*	*ij	*	*	*ij	*	*	*ij	*
0E-	Te	.	0e-	Te	.	0b-	Te	.	1r	.	.
.	.	.	.	.	.	.	.	.	1g	Te	.
1E-	pro-	.	1e-	pro-	.	1b-	pro-	.	1g	pro-	.
=43	=43	=43	=43	=43	=43	=43	=43	=43	=43	=43	=43
1A-X	-na	.	1e-	-na	.	1cc	-na	.	1a-X	-na	.
1F	mun-	.	1f	mun-	.	1a-X	Mun-	.	1d	Mun-	.
1E-	-di	.	1B-X	-di	.	1g	-di	.	1e-	-di	.
=44	=44	=44	=44	=44	=44	=44	=44	=44	=44	=44	=44
1.B-	ma-	.	1.B-	Ma-	.	1.f	Ma-	.	1.d	Ma-	.
2B-\	-chi-	.	2B-/	-chi-	.	2f/	-chi-	.	2d\	-chi-	.
1B-	-na	.	1B-	-na	.	1f	-na	.	1d	-na	.
*	*Xij	*	*	*Xij	*	*	*Xij	*	*	*Xij	*
=45	=45	=45	=45	=45	=45	=45	=45	=45	=45	=45	=45
0B-	cle-	.	1re	.	.	1rg	.	.	1r	.	.
.	.	.	1d	cle-	.	1f	cle-	.	1d	cle-	.
1An	-menſ	.	1c	-menſ	.	1f	-menſ	.	1f	.	.
=46	=46	=46	=46	=46	=46	=46	=46	=46	=46	=46	=46
1G	a-	.	1B-	a-	.	1b-	a-	.	1g	-menſ	.
!LO:N:acc=#	!	!	!	!	!	!	!	!	!	!	!
1En	-do-	.	1B-	-do-	.	1b-	-do-	.	1g	a-	.
2F\	-ret	.	1A-X	-ret	.	1a-X	-ret	.	1f	-do-	.
2F\	a-	.	.	.	.	.	.	.	.	.	.
=47	=47	=47	=47	=47	=47	=47	=47	=47	=47	=47	=47
!	!	!	!	!	!	!	!	!	!LO:TX:a:t=P:problem=# above	!	!
!	!	!	!	!	!	!	!	!	!LO:N:acc=#	!	!
0C	-do-	.	1c	a-	.	0g	a-	.	0en	-rêt	.
.	.	.	0c	-do-	.	.	.	.	.	.	.
!	!	!	!	!	!	!	!	!	!LO:TX:a:t=P:problem=♭ above	!	!
!	!	!	!	!	!	!	!	!	!LO:N:acc=-	!	!
1AAn	-ret	.	.	.	.	1a	-do-	.	1fn	.	.
!	!	!	!	!	!	!LO:LB:g=original	!	!	!	!	!
=48	=48	=48	=48	=48	=48	=48	=48	=48	=48	=48	=48
1BB-	Tri-	.	1d-X	-ret	.	1g	-ret	.	1f	Tri-	.
!	!	!	!	!	!	!	!	!	!LO:TX:a:t=P:problem=# above	!	!
!	!	!	!	!	!	!	!	!	!LO:N:acc=#	!	!
1.C	.	.	1.c	Tri-	.	1.g	Tri-	.	2en\	.	.
.	.	.	.	.	.	.	.	.	2d\	.	.
.	.	.	.	.	.	.	.	.	2e\	.	.
2C/	-ni-	.	2c\	-ni-	.	2g/	-ni-	.	2e\	-ni-	.
=49	=49	=49	=49	=49	=49	=49	=49	=49	=49	=49	=49
0.F	-tas	.	0.c	-tas	.	0.f	-tas	.	0.f	-tas	.
!LO:LB:g=original	!	!	!LO:LB:g=original	!	!	!	!	!	!	!	!
=50	=50	=50	=50	=50	=50	=50	=50	=50	=50	=50	=50
(1A-X	et	.	1c	et	.	1e-X	et	.	1e-X	et	.
!	!	!	!	!	!	!LO:SIC:v:s=1a-	!	!	!	!	!
1F)	nos	.	1d	nos	.	1a	nos	.	1f	nos	.
1B-	et	.	1B-	et-	.	1f	no-	.	1d	no-	.
=51	=51	=51	=51	=51	=51	=51	=51	=51	=51	=51	=51
1.E-	nos	.	1.e-	noſ	.	1.g	-vi	.	2e-\	-vi	.
.	.	.	.	.	.	.	.	.	2f\	.	.
.	.	.	.	.	.	.	.	.	2g\	.	.
!	!	!	!	!	!	!LO:SIC:v:s=2a-	!	!	!	!	!
2F\	no-	.	(4d\	no-	.	2a\	no-	.	2f\	.	.
.	.	.	4c\)	.	.	.	.	.	.	.	.
1G	-vi	.	1B-	-vi	.	1b-	-vi	.	1e-	.	.
=52	=52	=52	=52	=52	=52	=52	=52	=52	=52	=52	=52
1A-X	per	.	1e-	per	.	1cc	per	.	1a-X	per	.
1.B-	gra-	.	1.e-	gra-	.	1.f	gra-	.	1.f	gra-	.
2BB-/	-ti-	.	2d\	-ti-	.	2f/	-ti-	.	2f\	-(ti)-	.
=53	=53	=53	=53	=53	=53	=53	=53	=53	=53	=53	=53
1E-,<	-a(m)	.	1e-,<	-a(m)	.	0.e-	-a(m)	.	1g	-a(m)	.
1E-	no-	.	1e-	no-	.	.	.	.	1g	no-	.
1E-	-vu(m)	.	1e-	-vu(m)	.	.	.	.	1g	-vu(m)	.
=54	=54	=54	=54	=54	=54	=54	=54	=54	=54	=54	=54
1.D	ca-	.	1.B-	Ca-	.	1r	.	.	1.f	Ca-	.
.	.	.	.	.	.	1b-	No-	.	.	.	.
2BB-/	.	.	2d\	-na-	.	.	.	.	2d\	-na-	.
2C/	.	.	2c\	.	.	[<1b-	-vu(m)	.	2e-\	.	.
2D/	.	.	4B-\	.	.	.	.	.	2f\	.	.
.	.	.	4A\	.	.	.	.	.	.	.	.
=55	=55	=55	=55	=55	=55	=55	=55	=55	=55	=55	=55
1.E-	-na-	.	1G	.	.	2b-\]	.	.	1.g	.	.
.	.	.	.	.	.	2b-\	ca-	.	.	.	.
.	.	.	1B-	.	.	1b-	-na-	.	.	.	.
2F\	.	.	.	.	.	.	.	.	2a\	.	.
2E-\	.	.	2c\	.	.	1b-	-m(us)	.	2g\	.	.
2D/	.	.	2d\	.	.	.	.	.	2f\	.	.
=56	=56	=56	=56	=56	=56	=56	=56	=56	=56	=56	=56
1C	.	.	1e-	-m(us)	.	1r	.	.	1e-	.	.
*	*	*	*	*	*	*	*ij	*	*	*	*
1F	.	.	0c	Ca-	.	1cc	No-	.	1f	.	.
1E-	-m(us)	.	.	.	.	1cc	-vu(m)	.	1g	-m(us)	.
=57	=57	=57	=57	=57	=57	=57	=57	=57	=57	=57	=57
1.F	ca-	.	2c\	-na-	.	1cc	ca-	.	1.a-X	Ca-	.
.	.	.	2B-\	.	.	.	.	.	.	.	.
!	!	!	!LO:SIC:v:s=1.A-	!	!	!	!	!	!	!	!
.	.	.	1.A	.	.	0cc	-na-	.	.	.	.
2F\	-na-	.	.	.	.	.	.	.	2a-\	-na-	.
2E-\	.	.	.	.	.	.	.	.	2g\	.	.
*	*	*	*	*	*	*	*	*	*custos:e	*	*
2D/	.	.	2B-\	.	.	.	.	.	2f\	.	.
!	!	!	!	!	!	!	!	!	!LO:LB:g=original	!	!
=58	=58	=58	=58	=58	=58	=58	=58	=58	=58	=58	=58
1C	-m(us)	.	1c	-m(us)	.	1cc	-m(us)	.	1e-	.	.
*	*	*	*	*	*	*	*Xij	*	*	*	*
1BB-	Ca-	.	1G	Ca-	.	1dd	ca-	.	1d	.	.
*custos:EE	*	*	*	*	*	*	*	*	*	*	*
!	!	!	!LO:LB:g=original	!	!	!LO:TX:a:t=P:problem=♭ above	!	!	!	!	!
1AA-X	-na-	.	1c	-na	.	1ee-X	-na-	.	(2c\	.	.
.	.	.	.	.	.	.	.	.	2d\)	.	.
!LO:LB:g=original	!	!	!	!	!	!LO:LB:g=original	!	!	!	!	!
=59	=59	=59	=59	=59	=59	=59	=59	=59	=59	=59	=59
1EE-X	-m(us)	.	1G	-m(us)	.	1cc	-m(us)	.	1e-	-m(us)	.
1.GG	can-	.	1.G	Can-	.	1.cc	Can-	.	(1d	Can-	.
.	.	.	.	.	.	.	.	.	2.g\)	.	.
!LO:TX:a:t=  x	!	!	!	!	!	!LO:TX:a:t=P:problem=# above	!	!	!	!	!
!LO:TX:a:t=Vi	!	!	!	!	!	!LO:N:acc=#	!	!	!	!	!
2GG/	-ti-	.	2G/	-ti	.	2bn\	-ti-	.	.	.	.
!	!	!	!	!	!	!	!	!	!LO:TX:t=P:problem=brak kreski taktowej	!	!
.	.	.	.	.	.	.	.	.	4g\	-ti-	.
=60-	=60	=60	=60	=60	=60	=60	=60	=60	=60	=60	=60
!	!	!	!LO:TX:a:t=	!	!	!LO:TX:a:t=	!	!	!	!	!
!	!	!	!LO:TX:a:t=Vi X	!	!	!LO:TX:a:t=x.\nVi&colon;	!	!	!	!	!
!	!	!	!	!	!	!	!	!	!LO:N:acc=#	!	!
0.C	-cum	.	0.Gl	-cu(m)	.	0.ccl	-cu(m)	.	0.el	-(c)u(m)	.
=61||	=61||	=61||	=61||	=61||	=61||	=61||	=61||	=61||	=61||	=61||	=61||
*M3/1	*	*	*M3/1	*	*	*M3/1	*	*	*	*	*
!LO:TX:a:t=de\nx	!	!	!LO:TX:a:t=de\nX	!	!	!LO:TX:a:t=&colon;de\nX	!	!	!	!	!
0C	A-	.	1.e-	A-	.	1.cc	a-	.	1.e-	A-	.
.	.	.	2c\	.	.	2ee-\	.	.	2g\	.	.
1C	-men	.	2d\	.	.	2dd\	.	.	2f\	.	.
.	.	.	2e-\	.	.	2cc\	.	.	2e-\	.	.
=62	=62	=62	=62	=62	=62	=62	=62	=62	=62	=62	=62
*	*ij	*	*	*	*	*	*	*	*	*	*
!	!	!	!LO:N:acc=#	!	!	!LO:N:acc=#	!	!	!	!	!
1G	A-	.	1Bn	.	.	1bn	.	.	1d	.	.
1.E-X	.	.	1.c	.	.	1g	-me[n]	.	1.e-	.	.
.	.	.	.	.	.	1cc	a-	.	.	.	.
2D/	-men	.	2d\	-men	.	.	.	.	4f\	.	.
.	.	.	.	.	.	.	.	.	4g\	.	.
=63	=63	=63	=63	=63	=63	=63	=63	=63	=63	=63	=63
1C	A-	.	1e-	A-	.	1a-X	.	.	1a-X	.	.
0D	.	.	1.d	.	.	1.b-	.	.	0f	.	.
.	.	.	2c\	.	.	2a-\	.	.	.	.	.
=64-	=64	=64	=64	=64	=64	=64	=64	=64	=64	=64	=64
!	!	!	!LO:TX:a:t=P:problem=# above	!	!	!	!	!	!	!	!
!	!	!	!LO:N:acc=#	!	!	!	!	!	!	!	!
0.E-X	-men	.	1.B	.	.	0.g	-men	.	0.e-	-men	.
*	*Xij	*	*	*	*	*	*	*	*	*	*
!	!	!	!LO:SIC:v:s=2A-	!	!	!	!	!	!	!	!
.	.	.	2A/	.	.	.	.	.	.	.	.
.	.	.	1G	-men	.	.	.	.	.	.	.
=65	=65	=65	=65	=65	=65	=65	=65	=65	=65	=65	=65
*	*	*	*	*ij	*	*	*ij	*	*	*	*
0BB-X	a-	.	0d	A-	.	1.dd	a-	.	1.f	A-	.
.	.	.	.	.	.	2ee-\	.	.	2e-\	.	.
1BB-	-men	.	1d	-men	.	1ff	-men	.	1d	.	.
=66	=66	=66	=66	=66	=66	=66	=66	=66	=66	=66	=66
*	*ij	*	*	*	*	*	*	*	*	*	*
1.C	a-	.	0c	a-	.	1.ee-	a-	.	2e-\	.	.
.	.	.	.	.	.	.	.	.	2f\	.	.
.	.	.	.	.	.	.	.	.	2e-\	.	.
2D\	.	.	.	.	.	2dd\	.	.	2f\	.	.
1E-	-men	.	1G	-men	.	2cc\	.	.	1g	.	.
.	.	.	.	.	.	2b-\	.	.	.	.	.
=67	=67	=67	=67	=67	=67	=67	=67	=67	=67	=67	=67
1C	a-	.	1e-	A-	.	1b-	-men	.	1g	.	.
!	!	!	!LO:N:vis=1	!	!	!	!	!	!	!	!
0D	.	.	0d	.	.	0a	a-	.	1.g	.	.
.	.	.	.	.	.	.	.	.	2f\	-men	.
=68	=68	=68	=68-	=68	=68	=68	=68	=68	=68	=68	=68
*custos:E	*	*	*	*	*	*	*	*	*	*	*
!LO:TX:a:t=2\nVi#	!	!	!	!	!	!	!	!	!	!	!
!	!	!	!LO:TX:a:t=2\nVi#	!	!	!LO:TX:a:t=2\nVi#	!	!	!	!	!
0.GG	-men	.	0.d	-men	.	0.g	-men	.	0.g	.	.
*	*Xij	*	*	*Xij	*	*	*Xij	*	*	*	*
!LO:LB:g=original	!	!	!LO:LB:g=original	!	!	!LO:LB:g=original	!	!	!	!	!
=69	=69	=69	=69	=69	=69	=69	=69	=69	=69	=69	=69
!LO:TX:a:t=2\nde#	!	!	!	!	!	!	!	!	!	!	!
!LO:N:acc--	!	!	!LO:TX:a:t=2\nde#	!	!	!LO:TX:a:t=2\n#de	!	!	!	!	!
1.E-X	A-	.	1.B-	a-	.	1.g	a-	.	1.g	A-	.
2D/	.	.	4c\	.	.	4a\	.	.	2f\	.	.
.	.	.	4d\	.	.	4b-\	.	.	.	.	.
1C	.	.	1e-	.	.	1cc	.	.	1e-	.	.
=70	=70	=70	=70	=70	=70	=70	=70	=70	=70	=70	=70
1.G	.	.	2d\	.	.	1.b-	.	.	1.d	.	.
.	.	.	2c\	.	.	.	.	.	.	.	.
.	.	.	2B-\	.	.	.	.	.	.	.	.
2F\	.	.	2A\	.	.	4cc\	.	.	4e-\	.	.
.	.	.	.	.	.	4dd\	.	.	4f\	.	.
1E-	-men	.	1G	-men	.	1ee-	.	.	1g	-men	.
=71	=71	=71	=71	=71	=71	=71	=71	=71	=71	=71	=71
!LO:N:acc=#	!	!	!	!	!	!	!	!	!	!	!
1BBn	a-	.	1d	a-	.	1dd	.	.	1f	a-	.
1C	.	.	1c	.	.	2ee-\	.	.	1.e-	.	.
.	.	.	.	.	.	2dd\	.	.	.	.	.
1F#X	.	.	1A	.	.	2cc\	.	.	.	.	.
.	.	.	.	.	.	2dd\	.	.	2e-\	-men	.
=72	=72	=72	=72	=72	=72	=72	=72	=72	=72	=72	=72
*	*	*	*	*	*	*	*	*	*	*ij	*
!	!	!	!LO:N:acc=#	!	!	!LO:SIC:v:s=1.bn	!	!	!	!	!
0.G	-men	.	1.Bn	.	.	1.b-	.	.	0.d	a-	.
.	.	.	2c\	.	.	2a\	.	.	.	.	.
.	.	.	1d	-men	.	1g	-men	.	.	.	.
=73	=73	=73	=73	=73	=73	=73	=73	=73	=73	=73	=73
!LO:TX:a:t=P:problem=♭ above	!	!	!	!	!	!	!	!	!	!	!
1E-X	a-	.	1e-	a-	.	1g	a-	.	1g	.	.
1F	.	.	1c	.	.	1a	.	.	0f	-men	.
!	!	!	!	!	!	!LO:TX:a:t=P:problem=# above	!	!	!	!	!
!	!	!	!	!	!	!LO:N:acc=#	!	!	!	!	!
1D	.	.	1d	.	.	1bn	.	.	.	.	.
=74	=74	=74	=74	=74	=74	=74	=74	=74	=74	=74	=74
1.C	.	.	1.e-	.	.	1.cc	.	.	1.e-X	a-	.
2BB-/	.	.	2d\	.	.	2dd\	.	.	4f\	.	.
.	.	.	.	.	.	.	.	.	4g\	.	.
!	!	!	!	!	!	!	!	!	!LO:SIC:v:s=1a-	!	!
1AA-X	-men	.	1c	-men	.	1ee-	.	.	1a	.	.
=75	=75	=75	=75	=75	=75	=75	=75	=75	=75	=75	=75
1E-X	a-	.	1c	a-	.	1cc	-men	.	1g	-men	.
1.G	.	.	0d	.	.	1.cc	A-	.	0g	a-	.
!	!	!	!	!	!	!LO:N:acc=#	!	!	!	!	!
!	!	!	!	!	!	!LO:TX:a:t=P:problem=# above	!	!	!	!	!
2GG/	.	.	.	.	.	2bn\	.	.	.	.	.
=76-	=76	=76	=76-	=76	=76	=76-	=76	=76	=76	=76	=76
!	!	!	!LO:TX:a:t=P:problem=# above	!	!	!	!	!	!	!	!
!	!	!	!LO:N:acc=#	!	!	!	!	!	!	!	!
0.Cl;;	-men.	.	0.enl;;	-men.	.	0.ccl;;	-men.	.	0.gl;;	-men	.
*	*	*	*	*	*	*	*	*	*	*Xij	*
==	==	==	==	==	==	==	==	==	==	==	==
*-	*-	*-	*-	*-	*-	*-	*-	*-	*-	*-	*-
!!!system-decoration: [g1]
!!!RDF**kern: > = above
!!!RDF**kern: < = below
!!!RDF**kern: l = terminal long
!!!ENC: Andrzej Kubiczek
!!!END: 2021-04-08
!!!ENC: Tomasz Grochalski
!!!END: 2021-03-26
!!!YEC: Copyright 2022 Narodowy Instytut Fryderyka Chopina (https://polishscores.org)
!!!YEM: Licence CC BY 4.0 (https://creativecommons.org/licenses/by/4.0)
